img/icons/reviews.svg

<svg width="24" height="22" viewBox="0 0 24 22" fill="none" xmlns="http://www.w3.org/2000/svg">
<path d="M5.23252 2.77134C9.70142 -0.397805 16.0844 -0.138771 20.2163 3.38454C24.4193 6.97089 24.9936 12.8266 21.5367 17.0216C18.2805 20.9724 12.4075 22.2745 7.51798 20.2366L7.25092 20.1208L2.23759 21.1879L2.19175 21.1948L2.15163 21.2028H2.131L2.10579 21.2086H2.06223L2.02441 21.2131L2.00034 21.212L1.97398 21.2131L1.93615 21.2097H1.89604L1.87082 21.2051L1.84561 21.2028L1.80549 21.1948L1.76652 21.1891L1.74818 21.1845L1.72067 21.1788L1.66451 21.1604L1.637 21.1547L1.6244 21.149L1.59918 21.1409L1.5476 21.118L1.51322 21.1043L1.50061 21.0974L1.48456 21.0905L1.44903 21.0699L1.39746 21.0424L1.37912 21.0298L1.33671 21L1.29086 20.969L1.28857 20.9644L1.27367 20.9541L1.22438 20.9083L1.19573 20.8853L1.18885 20.8773L1.12467 20.8062L1.10977 20.7902L1.09716 20.7742L1.05246 20.71L1.03641 20.6882L1.03068 20.6767L0.982544 20.5931L0.974521 20.5793L0.969936 20.5701L0.961913 20.5564L0.945867 20.5128L0.922944 20.4647L0.918359 20.4464L0.913774 20.4349L0.894289 20.365L0.886266 20.3443L0.883974 20.3272L0.878243 20.3054L0.872512 20.2675L0.863343 20.2194L0.86105 20.1839L0.857612 20.1724V20.1541L0.853027 20.0922L0.854173 20.0509L0.85532 20.0246L0.857612 19.9638L0.862197 19.9352V19.9134L0.871366 19.8733L0.877097 19.8343L0.882828 19.8114L0.887412 19.7885L0.908043 19.7197L0.911482 19.7048L2.22957 15.7505L2.20436 15.7081C-0.328669 11.4134 0.818643 6.09064 4.97005 2.9639L5.23252 2.77134Z" fill="#89929C"/>
</svg>

<svg width="24" height="22" fill="none" xmlns="http://www.w3.org/2000/svg"><path d="M5.233 2.771C9.7-.398 16.084-.139 20.216 3.385c4.203 3.586 4.778 9.442 1.32 13.637-3.256 3.95-9.129 5.253-14.018 3.215l-.267-.116-5.013 1.067-.046.007-.04.008H2.13l-.025.006h-.044l-.038.004L2 21.212l-.026.001-.038-.003h-.04l-.025-.005-.025-.002-.04-.008-.04-.006-.018-.005-.027-.005-.056-.019-.028-.005-.013-.006-.025-.008-.051-.023-.035-.014-.012-.007-.016-.007-.036-.02-.052-.028-.018-.012-.042-.03-.046-.031-.002-.005-.015-.01-.05-.046-.028-.023-.007-.008-.064-.07-.015-.017-.013-.016-.045-.064-.016-.022-.005-.011-.048-.084-.008-.014-.005-.009-.008-.014-.016-.043-.023-.048-.005-.019-.004-.011-.02-.07-.008-.02-.002-.018-.006-.022-.005-.038-.01-.048-.002-.035-.003-.012v-.018l-.005-.062.001-.041.001-.026.003-.061.004-.029v-.022l.01-.04.005-.039.006-.023.004-.023.021-.068.003-.015L2.23 15.75l-.026-.043C-.329 11.413.82 6.091 4.97 2.964l.263-.193z" fill="#89929C"/></svg>
